X: 162	% 44
T: Taters In The Sandy Land
N: "(Great Big)" pencilled in before 1st title
T: (or No Use Kicking My Dog Around)
S: Viola Ruth "Pioneer Western Folk Tunes" 1948 p.16 #2
R: reel
Z: 2019 John Chambers <jc:trillian.mit.edu>
N: The rhythms of repeats isn't quite right; not fixed.
M: 2/4
L: 1/16
K: G
V: 1 name="43"
|:\
Md2MB2 AAGG | "^^"B3B "^^"B2(Bc) | "^^"ddBB AAEF | G3G G2(Bc) |\
ddBB AAGG | B3B B2(Bc) | ddBB AAEF |
G3G G2 :: (ef) | .g2.f2.e2.d2 | "^^"e3e "^^"e4 |\
"^^"efge dBAG | "^^"d3d "^^"d2(fg) | Mg2Mf2Me2Md2 | e3e e4 |
efge dBAG | d3d d2Bc | .d2.B2.A2.G2 | B3B B2(Bc) |\
ddBB AAEF |[" " G3G G2 :|[" " G3G G4- | G4 |]
